Assets/Icons/interaction/store-magnifier.svg

<?xml version="1.0" encoding="utf-8"?>
<!-- Generator: Adobe Illustrator 21.1.0, SVG Export Plug-In . SVG Version: 6.00 Build 0)  -->
<svg version="1.1" xmlns="http://www.w3.org/2000/svg" xmlns:xlink="http://www.w3.org/1999/xlink" x="0px" y="0px"
	 viewBox="0 0 60 60" style="enable-background:new 0 0 60 60;" xml:space="preserve">
<g id="eps">
</g>
<g id="EPS">
	<g>
		<path d="M45.43182,41.75238C46.12354,40.25159,46.5,38.61115,46.5,36.90918c0-3.0957-1.20557-6.00635-3.39502-8.19531
			c-2.18896-2.18945-5.09961-3.39502-8.1958-3.39502c-3.0957,0-6.00635,1.20557-8.19531,3.39502
			c-2.18945,2.18896-3.39502,5.09961-3.39502,8.19531c0,3.09619,1.20557,6.00684,3.39502,8.1958
			C28.90283,47.29443,31.81348,48.5,34.90918,48.5c1.70197,0,3.34241-0.3764,4.8432-1.06818l9.55621,10.21533
			c0.77246,0.82574,2.07526,0.84741,2.87476,0.04791l3.51172-3.51172c0.79956-0.7995,0.77783-2.10236-0.04785-2.87476
			L45.43182,41.75238z M34.90918,45.5c-2.29443,0-4.45166-0.89355-6.07422-2.51611s-2.51611-3.77979-2.51611-6.07471
			c0-2.29443,0.89355-4.45166,2.51611-6.07422s3.77979-2.51611,6.07422-2.51611c2.29492,0,4.45215,0.89355,6.07471,2.51611
			S43.5,34.61475,43.5,36.90918c0,2.29492-0.89355,4.45215-2.51611,6.07471S37.2041,45.5,34.90918,45.5z M50.79346,54.84277
			l-8.45728-9.04028c0.26398-0.22125,0.5224-0.45105,0.7688-0.69751c0.24646-0.2464,0.47626-0.50482,0.69751-0.7688l9.04028,8.45728
			L50.79346,54.84277z"/>
		<path d="M56.72089,7.45953l-53-5.88855C2.53613,1.43933,1.5,2.3667,1.5,3.55872V13.5c0,1.10455,0.89545,2,2,2h4v27
			c0,1.10455,0.89545,2,2,2h13.01276C22.78186,44.5,23,44.28186,23,44.0127v-0.02271C23,42.61481,21.88519,41.5,20.51001,41.5H10.5
			v-26H15v4.29999C15,20.46271,15.53729,21,16.20001,21h9.59998C26.46271,21,27,20.46271,27,19.79999V15.5h22.5v25
			c0,1.38074,1.11932,2.5,2.5,2.5c0.27618,0,0.5-0.22388,0.5-0.5v-27h4c1.10461,0,2-0.89545,2-2V9.44733
			C58.5,8.42822,57.73376,7.57208,56.72089,7.45953z M21,19.20001c-2.31958,0-4.20001-1.88043-4.20001-4.20001
			S18.68042,10.79999,21,10.79999S25.20001,12.68042,25.20001,15S23.31958,19.20001,21,19.20001z M55.5,12.5h-3H50H27v-2.29999
			C27,9.53717,26.46271,9,25.79999,9h-9.59998C15.53729,9,15,9.53717,15,10.20001V12.5H4.5V4.67578l51,5.66699V12.5z"/>
	</g>
</g>
</svg>

<svg enable-background="new 0 0 60 60" viewBox="0 0 60 60" xmlns="http://www.w3.org/2000/svg"><path d="m45.43 41.75c.69-1.5 1.07-3.14 1.07-4.84 0-3.1-1.21-6.01-3.4-8.2s-5.1-3.4-8.2-3.4-6.01 1.21-8.2 3.4-3.4 5.1-3.4 8.2 1.21 6.01 3.4 8.2 5.1 3.4 8.2 3.4c1.7 0 3.34-.38 4.84-1.07l9.56 10.22c.77.83 2.08.85 2.87.05l3.51-3.51c.8-.8.78-2.1-.05-2.87zm-16.6 1.23c-1.62-1.62-2.52-3.78-2.52-6.07s.89-4.45 2.52-6.07 3.78-2.52 6.07-2.52 4.45.89 6.07 2.52 2.52 3.78 2.52 6.07-.89 4.45-2.52 6.07-3.78 2.52-6.07 2.52-4.44-.89-6.07-2.52zm21.96 11.86-8.46-9.04c.26-.22.52-.45.77-.7s.48-.5.7-.77l9.04 8.46z"/><path d="m56.72 7.46-53-5.89c-1.18-.13-2.22.8-2.22 1.99v9.94c0 1.1.9 2 2 2h4v27c0 1.1.9 2 2 2h13.01c.27 0 .49-.22.49-.49v-.02c0-1.38-1.11-2.49-2.49-2.49h-10.01v-26h4.5v4.3c0 .66.54 1.2 1.2 1.2h9.6c.66 0 1.2-.54 1.2-1.2v-4.3h22.5v25c0 1.38 1.12 2.5 2.5 2.5.28 0 .5-.22.5-.5v-27h4c1.1 0 2-.9 2-2v-4.05c0-1.02-.77-1.88-1.78-1.99zm-35.72 11.74c-2.32 0-4.2-1.88-4.2-4.2s1.88-4.2 4.2-4.2 4.2 1.88 4.2 4.2-1.88 4.2-4.2 4.2zm34.5-6.7h-3-2.5-23v-2.3c0-.66-.54-1.2-1.2-1.2h-9.6c-.66 0-1.2.54-1.2 1.2v2.3h-10.5v-7.82l51 5.67z"/></svg>
